X:1
T:Selfish Runs the Hare
M:6/8
L:1/4
K:G
 E F/2| G G/2 A F/2| G3/2 B c/2| d/2 d c B/2| G3/2 z3/2| G G/2 A3/4 G/4 F/2|\
 G G/2 B c/2| d3/4 d/4 d/2 e c/2| d3/2 z d/2| e e/2 c e/2| d d/2 A B/2|\
 c d/2 c B/2| G3/2 z D/2| G G/2 A3/4 G/4 F/2| G G/2 A3/4 B/4 c/2| d3/2 c B/2|\
 G3/2 z3/2| G3/2 A3/2| G3/2 z3/2| c3/2 d- B/2| A3/2 z D/2| B B/2 B3/4 A/4 G/2|\
 c c/2 c3/4 B/4 c/2| d3/2 c B/2| G3/2 z||
